images/footer-left.svg

<svg width="172" height="336" viewBox="0 0 172 336" fill="none" xmlns="http://www.w3.org/2000/svg">
<mask id="mask0" mask-type="alpha" maskUnits="userSpaceOnUse" x="-111" y="0" width="283" height="336">
<path d="M171.383 43.8857L-54.3895 5.7299e-05L-111 291.236L114.772 335.122L171.383 43.8857Z" fill="white"/>
</mask>
<g mask="url(#mask0)">
<path fill-rule="evenodd" clip-rule="evenodd" d="M-62.2394 293.942C-97.5098 256.163 -95.4917 200.352 -83.5933 152.326C-81.6068 144.308 -80.6884 135.61 -75.3512 129.337C-70.0142 123.069 -60.0418 120.122 -53.5481 125.057C-48.1621 129.15 -47.0327 136.678 -44.9068 143.157C-42.0827 151.777 -36.7912 159.537 -29.8414 165.254C-25.2764 169.011 -19.2738 171.991 -13.6116 170.266C-5.84824 167.899 -2.98816 158.452 -1.33348 150.406C1.74923 135.417 4.83135 120.431 7.90975 105.443C9.56486 97.4047 11.2783 89.1978 15.3902 82.1051C19.4984 75.0106 26.5088 69.1007 34.589 68.5779C42.6691 68.056 51.1619 74.4612 51.1047 82.664C51.0822 86.0764 49.6956 89.3316 49.2126 92.7126C48.7274 96.0942 49.4964 100.11 52.4598 101.708C55.4603 103.331 59.1485 101.735 62.0458 99.8902C72.0363 93.5388 79.8671 84.2839 87.3159 75.0078C94.7677 65.7322 102.117 56.1789 111.5 48.9251C120.88 41.6756 132.751 36.8704 144.369 38.6541C155.986 40.4396 166.713 50.1324 167.217 62.0383C167.726 73.9799 158.698 84.0675 149.578 91.7098C136.052 103.05 120.908 112.405 104.781 119.382C101.873 120.644 98.7212 122.003 97.1216 124.772C94.2472 129.759 98.1831 136.15 103.086 139.028C108.64 142.292 115.252 143.043 121.346 145.109C127.441 147.172 133.626 151.372 134.734 157.791C136.276 166.695 127.6 173.846 119.664 178.051C103.769 186.473 86.4632 192.115 68.7347 194.661C62.3808 195.573 55.7718 196.153 50.1367 199.295C44.5005 202.437 40.1016 209.047 41.7751 215.311C43.4476 221.585 50.4383 224.959 56.8569 225.118C63.2734 225.282 69.5192 223.097 75.875 222.122C87.7731 220.29 101.839 224.072 106.87 235.107C110.178 242.359 108.736 251.179 104.805 258.152C100.876 265.13 94.755 270.557 88.4422 275.425C66.3839 292.431 40.2388 304.343 12.8026 307.797C-14.6297 311.252 -38.8184 308.634 -62.2392 293.941" fill="#00CCCC"/>
<path fill-rule="evenodd" clip-rule="evenodd" d="M-80.5004 366.792C-79.1683 355.825 -77.4139 349.855 -71.5359 330.946C-65.707 312.038 -56.6995 290.157 -44.3684 267.131C-32.0817 244.077 -16.5414 219.923 0.568497 195.22C4.86824 189.064 9.11481 182.976 13.3031 176.979C17.4965 171.002 21.6561 165.074 26.0778 159.527C34.8723 148.395 44.1645 138.367 53.2804 129.126C62.393 119.875 71.3755 111.429 79.8274 103.596C88.3045 95.7801 96.3372 88.6417 103.932 82.4531C119.094 70.0106 132.464 61.4505 141.882 55.9525C146.586 53.1873 150.304 51.1634 152.845 49.8267C154.064 49.1947 155.016 48.6973 155.738 48.3231C156.394 47.9922 156.735 47.8344 156.749 47.8575C156.762 47.8835 156.444 48.0865 155.809 48.4602C155.108 48.869 154.171 49.409 152.985 50.0964C150.493 51.5241 146.825 53.6269 142.172 56.4662C132.858 62.1179 119.626 70.7873 104.595 83.2942C97.0619 89.5201 89.0884 96.6894 80.6621 104.538C72.2521 112.407 63.3149 120.871 54.2512 130.121C45.1861 139.37 35.9481 149.381 27.219 160.464C22.8291 165.989 18.7158 171.868 14.5138 177.862C10.3328 183.859 6.08952 189.945 1.79212 196.1C-15.3011 220.78 -30.8392 244.849 -43.16 267.801C-55.5172 290.72 -64.5866 312.468 -70.5234 331.266C-76.5108 350.067 -78.4131 355.944 -79.9173 366.863" fill="#263238"/>
<path fill-rule="evenodd" clip-rule="evenodd" d="M29.1949 157.069C29.1063 157.07 29.1292 155.793 29.2401 153.488C29.3424 151.186 29.5875 147.854 29.9426 143.737C30.6453 135.51 31.9526 124.162 33.4331 111.656C34.916 99.1428 36.0799 87.8148 36.6732 79.6052C36.9772 75.4997 37.1975 72.1757 37.3243 69.8777C37.4593 67.5792 37.5799 66.3038 37.6695 66.2988C37.7599 66.295 37.8121 67.5622 37.8323 69.8582C37.8644 72.1566 37.7844 75.4926 37.5935 79.6139C37.237 87.8573 36.215 99.2415 34.7305 111.768C33.2408 124.107 31.8913 135.268 30.8627 143.799C30.419 147.654 30.0461 150.904 29.7491 153.511C29.4787 155.803 29.2881 157.072 29.1949 157.069Z" fill="#263238"/>
<path fill-rule="evenodd" clip-rule="evenodd" d="M135.081 159.331C135.063 159.434 133.578 159.298 130.919 158.963C128.258 158.646 124.412 158.164 119.638 157.722C110.102 156.768 96.8849 155.915 82.2514 155.625C67.6183 155.359 54.3598 155.694 44.7773 156.215C39.98 156.441 36.1047 156.73 33.4222 156.914C30.7429 157.109 29.2555 157.167 29.2416 157.06C29.2334 156.956 30.7034 156.699 33.3747 156.32C36.0435 155.955 39.921 155.502 44.7226 155.134C54.3185 154.334 67.6203 153.829 82.2996 154.093C96.9733 154.386 110.232 155.413 119.764 156.649C124.535 157.229 128.372 157.874 131.013 158.377C133.651 158.892 135.099 159.226 135.081 159.331ZM104.44 245.645C104.442 245.701 103.931 245.804 102.956 245.951C101.808 246.103 100.395 246.288 98.6858 246.52L82.9714 248.436C69.7035 250.062 51.3978 252.527 31.1765 255.277C10.9429 258.033 -7.39834 260.319 -20.6935 261.655C-27.3432 262.323 -32.7248 262.81 -36.4489 263.065C-38.1716 263.17 -39.5891 263.256 -40.7417 263.331C-41.7207 263.373 -42.2402 263.368 -42.2413 263.311C-42.2448 263.255 -41.7352 263.155 -40.7587 263.005L-36.4894 262.439C-32.5519 261.957 -27.2424 261.312 -20.7778 260.522C-7.50899 258.897 10.7977 256.432 31.028 253.677C51.251 250.923 69.5905 248.636 82.8905 247.301C89.5379 246.629 94.9197 246.147 98.6489 245.892C100.369 245.786 101.784 245.697 102.939 245.625C103.92 245.583 104.433 245.589 104.44 245.645Z" fill="#263238"/>
</g>
</svg>

<svg width="172" height="336" fill="none" xmlns="http://www.w3.org/2000/svg"><mask id="a" maskUnits="userSpaceOnUse" x="-111" y="0" width="283" height="336"><path d="M171.383 43.886L-54.39 0-111 291.236l225.772 43.886 56.611-291.236z" fill="#fff"/></mask><g mask="url(#a)" fill-rule="evenodd" clip-rule="evenodd"><path d="M-62.24 293.942c-35.27-37.779-33.252-93.59-21.353-141.616 1.986-8.018 2.905-16.716 8.242-22.989 5.337-6.268 15.31-9.215 21.803-4.28 5.386 4.093 6.515 11.621 8.641 18.1 2.824 8.62 8.116 16.38 15.066 22.097 4.565 3.757 10.567 6.737 16.23 5.012 7.763-2.367 10.623-11.814 12.278-19.86 3.082-14.989 6.164-29.975 9.243-44.963 1.655-8.038 3.368-16.245 7.48-23.338 4.108-7.094 11.119-13.004 19.199-13.527 8.08-.522 16.573 5.883 16.516 14.086-.023 3.412-1.41 6.668-1.892 10.049-.486 3.381.283 7.397 3.247 8.995 3 1.623 6.688.027 9.586-1.818 9.99-6.351 17.821-15.606 25.27-24.882 7.452-9.276 14.801-18.83 24.184-26.083 9.38-7.25 21.251-12.055 32.869-10.27 11.617 1.785 22.344 11.477 22.848 23.383.509 11.942-8.519 22.03-17.639 29.672a182.912 182.912 0 01-44.797 27.672c-2.908 1.262-6.06 2.621-7.66 5.39-2.874 4.987 1.062 11.378 5.965 14.256 5.554 3.264 12.166 4.015 18.26 6.081 6.095 2.063 12.28 6.263 13.388 12.682 1.542 8.904-7.134 16.055-15.07 20.26-15.895 8.422-33.2 14.064-50.93 16.61-6.353.912-12.962 1.492-18.597 4.634-5.636 3.142-10.035 9.752-8.362 16.016 1.673 6.274 8.663 9.648 15.082 9.807 6.416.164 12.662-2.021 19.018-2.996 11.898-1.832 25.964 1.95 30.995 12.985 3.308 7.252 1.866 16.072-2.065 23.045-3.929 6.978-10.05 12.405-16.363 17.273-22.058 17.006-48.203 28.918-75.64 32.372-27.432 3.455-51.62.837-75.041-13.856" fill="#0CC"/><path d="M-80.5 366.792c1.332-10.967 3.086-16.937 8.964-35.846 5.829-18.908 14.837-40.789 27.168-63.815 12.286-23.054 27.827-47.208 44.936-71.911 4.3-6.156 8.547-12.244 12.735-18.241 4.194-5.977 8.353-11.905 12.775-17.452 8.794-11.132 18.086-21.16 27.202-30.401 9.113-9.251 18.096-17.697 26.547-25.53 8.478-7.816 16.51-14.954 24.105-21.143 15.162-12.442 28.532-21.003 37.95-26.5a267.393 267.393 0 0110.963-6.126c1.219-.632 2.171-1.13 2.893-1.504.656-.33.997-.489 1.011-.465.013.026-.305.229-.94.602-.701.409-1.638.949-2.824 1.636a429.252 429.252 0 00-10.813 6.37c-9.314 5.652-22.546 14.321-37.577 26.828-7.533 6.226-15.507 13.395-23.933 21.244-8.41 7.869-17.347 16.333-26.41 25.583-9.066 9.249-18.304 19.26-27.033 30.343-4.39 5.525-8.503 11.404-12.705 17.398-4.181 5.997-8.424 12.083-12.722 18.238-17.093 24.68-32.631 48.749-44.952 71.701-12.357 22.919-21.427 44.667-27.363 63.465-5.988 18.801-7.89 24.678-9.394 35.597" fill="#263238"/><path d="M29.195 157.069c-.089.001-.066-1.276.045-3.581.102-2.302.348-5.634.703-9.751.702-8.227 2.01-19.575 3.49-32.081 1.483-12.513 2.647-23.841 3.24-32.05.304-4.106.524-7.43.651-9.728.135-2.299.256-3.574.346-3.58.09-.003.142 1.264.162 3.56.032 2.299-.048 5.635-.239 9.756-.356 8.243-1.378 19.627-2.863 32.154-1.49 12.339-2.839 23.5-3.867 32.031-.444 3.855-.817 7.105-1.114 9.712-.27 2.292-.46 3.561-.554 3.558z" fill="#263238"/><path d="M135.081 159.331c-.018.103-1.503-.033-4.162-.368-2.661-.317-6.507-.799-11.281-1.241-9.536-.954-22.753-1.807-37.387-2.097-14.633-.266-27.891.069-37.474.59-4.797.226-8.672.515-11.355.699-2.68.195-4.166.253-4.18.146-.009-.104 1.461-.361 4.133-.74 2.669-.365 6.546-.818 11.348-1.186 9.596-.8 22.897-1.305 37.577-1.041 14.673.293 27.932 1.32 37.464 2.556a171.24 171.24 0 0111.249 1.728c2.638.515 4.086.849 4.068.954zm-30.641 86.314c.002.056-.509.159-1.484.306-1.148.152-2.561.337-4.27.569l-15.715 1.916c-13.267 1.626-31.573 4.091-51.794 6.841-20.234 2.756-38.575 5.042-51.87 6.378-6.65.668-12.032 1.155-15.756 1.41-1.723.105-3.14.191-4.293.266-.979.042-1.498.037-1.5-.02-.003-.056.507-.156 1.483-.306l4.27-.566c3.937-.482 9.247-1.127 15.711-1.917 13.269-1.625 31.576-4.09 51.806-6.845 20.223-2.754 38.563-5.041 51.863-6.376 6.647-.672 12.029-1.154 15.758-1.409 1.72-.106 3.135-.195 4.29-.267.981-.042 1.494-.036 1.501.02z" fill="#263238"/></g></svg>
